client/src/assets/images/icon-lactation.svg

<svg fill="none" height="60" viewBox="0 0 40 60" width="40" xmlns="http://www.w3.org/2000/svg"><path d="m32.2083 28.9936c1.4841 0 2.9153.4771 4.1344 1.2192 1.2191.742 2.2262 1.8551 2.8622 3.1803.2651.53.4241 1.06.5831 1.6431.106.5831.212 1.1661.212 1.7492 0 2.1202-.9011 4.0813-2.2792 5.4595l-.106.106-.106.159c.477.9541.689 1.9612.689 3.0213-.053 1.5901-.636 3.2333-1.7491 4.8234-1.0601 1.4841-2.6503 2.9683-4.6114 4.2404-4.3464 2.8622-10.707 4.9294-18.3927 4.7704-3.55135-.053-6.57263-1.2191-8.85183-3.1273-2.1202-1.8021-3.604332-4.2934-4.24039-7.1556-.636058-2.8623-.4240386-6.0956.74207-9.4879 1.69615-4.7174 5.35349-9.7529 11.50205-14.3113-.7421.212-1.4841.265-2.2262.318-1.21912 0-2.49123-.159-4.02837-.53-.47705-.106-.74207-.5831-.68907-1.0071.37104-2.3852.05301-4.4524-.26502-6.6786-.21202-1.6432-.47704-3.3393-.47704-5.3535v-.053c0-3.2333 1.27211-6.20157 3.49831-8.37477 2.17319-2.1732 5.30049-3.5513252 9.06379-3.60433h.2651c3.7633.0530048 6.8906 1.43113 9.1168 3.60433s3.4983 5.14147 3.4983 8.37477h-.053v.053c0 2.0142-.212 3.7103-.477 5.3535-.2651 2.2262-.5831 4.2934-.212 6.6786.053.477-.2651.9011-.7421 1.0071-1.5372.371-2.7563.53-4.0284.53-.424-.053-.9011-.053-1.3251-.159.7421.5301 1.4841 1.0601 2.1732 1.5902 1.1661.901 2.2262 1.8021 3.1803 2.7032 1.0071-.477 2.1202-.7421 3.3393-.7421zm3.9223 14.9474c-3.0212 2.8623-7.3146 5.5125-11.502 7.1027-5.0885 1.9081-10.1769 2.3322-12.9862-.106l-.106-.0531c-.6361-.636-1.0601-1.4311-1.2191-2.2792-.31804-1.3251 0-2.8092.9011-4.2934.848-1.3251 2.1732-2.6502 3.9753-3.7103 2.3322-1.4311 5.5125-2.4382 9.3289-2.5972-.106-.3711-.106-.7951-.106-1.2191 0-.1591 0-.3181 0-.4771s.053-.318.053-.477c.265-1.9612 1.1661-3.6574 2.5972-4.8765.053-.106.159-.159.265-.212-.848-.7951-1.7491-1.5371-2.7032-2.2792-.424-.318-.9011-.6891-1.3251-.9541-.212.7421-.6361 1.4841-1.2721 2.1202-.7421.7421-1.8022 1.3781-2.9153 1.6432-.4771.159-1.0071.212-1.4841.212-.5301 0-1.0071-.053-1.5372-.212-1.0601-.2651-2.1202-.9011-2.8622-1.6432-.5301-.477-.9011-1.0601-1.1131-1.6961-4.87649 4.0283-7.89777 8.2687-9.3289 12.2441-1.06009 3.0742-1.27211 5.9895-.68906 8.5337.53005 2.4913 1.80216 4.6115 3.65733 6.1486 1.96118 1.6962 4.61143 2.6503 7.73873 2.7033 7.2616.159 13.3042-1.7492 17.3856-4.4525 1.7491-1.1661 3.1273-2.4912 4.0813-3.8163.9011-1.2721 1.4312-2.5972 1.4312-3.8163 0-.5301-.053-1.0601-.2651-1.5372zm-22.474-17.2266c0 .5831.318 1.1661.8481 1.6432.53.53 1.2721 1.0071 2.0672 1.2191.371.053.689.106 1.0601.106.318 0 .689-.053 1.0601-.106.795-.212 1.5371-.6891 2.0671-1.2191.4771-.4771.7951-1.0601.7951-1.6432 0-.159 0-.265 0-.371-.371-.265-.7421-.477-1.1131-.6891-.9541.4241-1.9612.6361-2.8092.6361-.7951 0-1.6962-.212-2.5973-.53-.477.318-.9011.636-1.3781.954zm-1.9082-3.0742c-.106-.1061-.212-.2121-.318-.3181-1.59015-1.5371-2.70325-3.6573-2.70325-5.9365v-7.2087c0-.53002.37103-.90105.90108-.90105.95407 0 2.01417-.15902 3.02127-.42404.7421-.21202 1.4311-.42404 1.9612-.63606-.4771-.84808-.7951-1.74916-.9541-2.65024-.053-.47705.265-.90108.7421-1.00709.477-.05301.954.26502 1.0601.74206.106.90109.53 1.85517 1.1661 2.70325.053 0 .053.05301.053.05301.583.79507 1.3781 1.53714 2.2792 2.17316 1.8021 1.2722 4.1874 2.1732 6.6786 2.1732.477 0 .9011.3711.9011.9011v4.0814c0 2.2792-1.1131 4.3994-2.7033 5.9365-.106.106-.212.212-.318.3181.477.106.9011.159 1.3781.159.9011 0 1.8022-.106 2.8093-.3181-.212-2.2792.053-4.2403.371-6.3075.212-1.6432.4771-3.2863.4771-5.1415v-.053c0-2.75626-1.1131-5.24749-2.9683-7.10265-1.8552-1.85517-4.5584-3.07429-7.8447-3.07429h-.2121c-3.2863 0-5.9895 1.21912-7.84467 3.07429-1.90817 1.85516-2.96827 4.34639-2.96827 7.10265v.053c0 1.8552.21202 3.4983.47704 5.1415.26503 2.0672.58306 4.0283.37104 6.3075 1.00709.2121 1.90817.3181 2.80926.3181.424 0 .9011-.053 1.3781-.159zm3.9754-13.94031c-.7421.31801-1.6432.63601-2.5973.90111-.848.212-1.7491.371-2.5972.424v6.3606c0 1.7491.9011 3.3923 2.1732 4.6644 1.4841 1.4841 3.3923 2.4382 4.9295 2.4382 1.4841 0 3.4453-.9541 4.9294-2.4382 1.2721-1.2721 2.1732-2.9153 2.1732-4.6644v-3.2333c-2.5442-.159-4.9294-1.1131-6.8376-2.4382-.8481-.5831-1.5902-1.2721-2.1732-2.01421zm16.9085 34.87721c-.159 0-.318 0-.424 0-2.1732 0-4.0814-.8481-5.5125-2.2792-.6891-.6891-1.2721-1.5372-1.6962-2.4913-3.6573.053-6.6786 1.0071-8.9048 2.3323-1.5371.901-2.6502 2.0141-3.3393 3.1272-.636 1.0601-.9011 2.0672-.6891 2.9683.1061.477.3181.9541.7421 1.3251 2.2792 1.9612 6.6786 1.4842 11.184-.212 3.0213-1.1131 6.0956-2.8623 8.6398-4.7704zm2.7563-12.8802c-.9541-.5301-2.0142-.9011-3.1803-.9011-1.5372 0-2.9153.5831-3.9754 1.4841-1.0601.9541-1.8021 2.2793-1.9612 3.7634-.053.106-.053.212-.053.371v.3711c0 1.6431.6361 3.1802 1.7492 4.2403 1.0601 1.0601 2.5972 1.7492 4.2404 1.7492 1.6431 0 3.1273-.6891 4.2404-1.7492 1.0601-1.0601 1.7491-2.5972 1.7491-4.2403 0-.4771-.053-.9011-.159-1.3252-.106-.477-.265-.901-.477-1.2721-.4771-1.0071-1.2191-1.8551-2.1732-2.4912z" fill="#808080"/></svg>

<svg width="40" height="60" viewBox="0 0 40 60" fill="none" xmlns="http://www.w3.org/2000/svg">
<path d="M32.2083 28.9936C33.6924 28.9936 35.1236 29.4707 36.3427 30.2128C37.5618 30.9548 38.5689 32.0679 39.2049 33.3931C39.47 33.9231 39.629 34.4531 39.788 35.0362C39.894 35.6193 40 36.2023 40 36.7854C40 38.9056 39.0989 40.8667 37.7208 42.2449L37.6148 42.3509L37.5088 42.5099C37.9858 43.464 38.1978 44.4711 38.1978 45.5312C38.1448 47.1213 37.5618 48.7645 36.4487 50.3546C35.3886 51.8387 33.7984 53.3229 31.8373 54.595C27.4909 57.4572 21.1303 59.5244 13.4446 59.3654C9.89325 59.3124 6.87197 58.1463 4.59277 56.2381C2.47257 54.436 0.988438 51.9447 0.35238 49.0825C-0.283678 46.2202 -0.0716586 42.9869 1.09445 39.5946C2.7906 34.8772 6.44794 29.8417 12.5965 25.2833C11.8544 25.4953 11.1124 25.5483 10.3703 25.6013C9.15118 25.6013 7.87907 25.4423 6.34193 25.0713C5.86488 24.9653 5.59986 24.4882 5.65286 24.0642C6.0239 21.679 5.70587 19.6118 5.38784 17.3856C5.17582 15.7424 4.9108 14.0463 4.9108 12.0321V11.9791C4.9108 8.7458 6.18291 5.77753 8.40911 3.60433C10.5823 1.43113 13.7096 0.0530048 17.4729 0H17.738C21.5013 0.0530048 24.6286 1.43113 26.8548 3.60433C29.081 5.77753 30.3531 8.7458 30.3531 11.9791H30.3001V12.0321C30.3001 14.0463 30.0881 15.7424 29.8231 17.3856C29.558 19.6118 29.24 21.679 29.6111 24.0642C29.6641 24.5412 29.346 24.9653 28.869 25.0713C27.3318 25.4423 26.1127 25.6013 24.8406 25.6013C24.4166 25.5483 23.9395 25.5483 23.5155 25.4423C24.2576 25.9724 24.9996 26.5024 25.6887 27.0325C26.8548 27.9335 27.9149 28.8346 28.869 29.7357C29.8761 29.2587 30.9892 28.9936 32.2083 28.9936ZM36.1306 43.941C33.1094 46.8033 28.816 49.4535 24.6286 51.0437C19.5401 52.9518 14.4517 53.3759 11.6424 50.9377L11.5364 50.8846C10.9003 50.2486 10.4763 49.4535 10.3173 48.6054C9.99926 47.2803 10.3173 45.7962 11.2184 44.312C12.0664 42.9869 13.3916 41.6618 15.1937 40.6017C17.5259 39.1706 20.7062 38.1635 24.5226 38.0045C24.4166 37.6334 24.4166 37.2094 24.4166 36.7854C24.4166 36.6263 24.4166 36.4673 24.4166 36.3083C24.4166 36.1493 24.4696 35.9903 24.4696 35.8313C24.7346 33.8701 25.6357 32.1739 27.0668 30.9548C27.1198 30.8488 27.2258 30.7958 27.3318 30.7428C26.4838 29.9477 25.5827 29.2057 24.6286 28.4636C24.2046 28.1456 23.7275 27.7745 23.3035 27.5095C23.0915 28.2516 22.6674 28.9936 22.0314 29.6297C21.2893 30.3718 20.2292 31.0078 19.1161 31.2729C18.639 31.4319 18.109 31.4849 17.632 31.4849C17.1019 31.4849 16.6249 31.4319 16.0948 31.2729C15.0347 31.0078 13.9746 30.3718 13.2326 29.6297C12.7025 29.1527 12.3315 28.5696 12.1195 27.9336C7.24301 31.9619 4.22173 36.2023 2.7906 40.1777C1.73051 43.2519 1.51849 46.1672 2.10154 48.7114C2.63159 51.2027 3.9037 53.3229 5.75887 54.86C7.72005 56.5562 10.3703 57.5103 13.4976 57.5633C20.7592 57.7223 26.8018 55.8141 30.8832 53.1108C32.6323 51.9447 34.0105 50.6196 34.9645 49.2945C35.8656 48.0224 36.3957 46.6973 36.3957 45.4782C36.3957 44.9481 36.3427 44.4181 36.1306 43.941ZM13.6566 26.7144C13.6566 27.2975 13.9746 27.8805 14.5047 28.3576C15.0347 28.8876 15.7768 29.3647 16.5719 29.5767C16.9429 29.6297 17.2609 29.6827 17.632 29.6827C17.95 29.6827 18.321 29.6297 18.6921 29.5767C19.4871 29.3647 20.2292 28.8876 20.7592 28.3576C21.2363 27.8805 21.5543 27.2975 21.5543 26.7144C21.5543 26.5554 21.5543 26.4494 21.5543 26.3434C21.1833 26.0784 20.8122 25.8664 20.4412 25.6543C19.4871 26.0784 18.48 26.2904 17.632 26.2904C16.8369 26.2904 15.9358 26.0784 15.0347 25.7604C14.5577 26.0784 14.1336 26.3964 13.6566 26.7144ZM11.7484 23.6402C11.6424 23.5341 11.5364 23.4281 11.4304 23.3221C9.84025 21.785 8.72715 19.6648 8.72715 17.3856V10.1769C8.72715 9.64688 9.09818 9.27585 9.62823 9.27585C10.5823 9.27585 11.6424 9.11683 12.6495 8.85181C13.3916 8.63979 14.0806 8.42777 14.6107 8.21575C14.1336 7.36767 13.8156 6.46659 13.6566 5.56551C13.6036 5.08846 13.9216 4.66443 14.3987 4.55842C14.8757 4.50541 15.3527 4.82344 15.4588 5.30048C15.5648 6.20157 15.9888 7.15565 16.6249 8.00373C16.6779 8.00373 16.6779 8.05674 16.6779 8.05674C17.2609 8.85181 18.056 9.59388 18.9571 10.2299C20.7592 11.5021 23.1445 12.4031 25.6357 12.4031C26.1127 12.4031 26.5368 12.7742 26.5368 13.3042V17.3856C26.5368 19.6648 25.4237 21.785 23.8335 23.3221C23.7275 23.4281 23.6215 23.5341 23.5155 23.6402C23.9925 23.7462 24.4166 23.7992 24.8936 23.7992C25.7947 23.7992 26.6958 23.6932 27.7029 23.4811C27.4909 21.2019 27.7559 19.2408 28.0739 17.1736C28.2859 15.5304 28.551 13.8873 28.551 12.0321V11.9791C28.551 9.22284 27.4379 6.73161 25.5827 4.87645C23.7275 3.02128 21.0243 1.80216 17.738 1.80216H17.5259C14.2396 1.80216 11.5364 3.02128 9.68123 4.87645C7.77306 6.73161 6.71296 9.22284 6.71296 11.9791V12.0321C6.71296 13.8873 6.92498 15.5304 7.19 17.1736C7.45503 19.2408 7.77306 21.2019 7.56104 23.4811C8.56813 23.6932 9.46921 23.7992 10.3703 23.7992C10.7943 23.7992 11.2714 23.7462 11.7484 23.6402ZM15.7238 9.69989C14.9817 10.0179 14.0806 10.3359 13.1265 10.601C12.2785 10.813 11.3774 10.972 10.5293 11.025V17.3856C10.5293 19.1347 11.4304 20.7779 12.7025 22.05C14.1866 23.5341 16.0948 24.4882 17.632 24.4882C19.1161 24.4882 21.0773 23.5341 22.5614 22.05C23.8335 20.7779 24.7346 19.1347 24.7346 17.3856V14.1523C22.1904 13.9933 19.8052 13.0392 17.897 11.7141C17.0489 11.131 16.3068 10.442 15.7238 9.69989ZM32.6323 44.5771C32.4733 44.5771 32.3143 44.5771 32.2083 44.5771C30.0351 44.5771 28.1269 43.729 26.6958 42.2979C26.0067 41.6088 25.4237 40.7607 24.9996 39.8066C21.3423 39.8596 18.321 40.8137 16.0948 42.1389C14.5577 43.0399 13.4446 44.153 12.7555 45.2661C12.1195 46.3262 11.8544 47.3333 12.0664 48.2344C12.1725 48.7114 12.3845 49.1885 12.8085 49.5595C15.0877 51.5207 19.4871 51.0437 23.9925 49.3475C27.0138 48.2344 30.0881 46.4852 32.6323 44.5771ZM35.3886 31.6969C34.4345 31.1668 33.3744 30.7958 32.2083 30.7958C30.6711 30.7958 29.293 31.3789 28.2329 32.2799C27.1728 33.234 26.4308 34.5592 26.2717 36.0433C26.2187 36.1493 26.2187 36.2553 26.2187 36.4143C26.2187 36.5203 26.2187 36.6263 26.2187 36.7854C26.2187 38.4285 26.8548 39.9656 27.9679 41.0257C29.028 42.0858 30.5651 42.7749 32.2083 42.7749C33.8514 42.7749 35.3356 42.0858 36.4487 41.0257C37.5088 39.9656 38.1978 38.4285 38.1978 36.7854C38.1978 36.3083 38.1448 35.8843 38.0388 35.4602C37.9328 34.9832 37.7738 34.5592 37.5618 34.1881C37.0847 33.181 36.3427 32.333 35.3886 31.6969Z" fill="#808080"/>
</svg>
